src/assets/icons/arrows-h.svg

<svg width="14" height="14" viewBox="0 0 14 14" fill="none" xmlns="http://www.w3.org/2000/svg">
<g id="arrows-h">
<path id="Vector" d="M4.22426 3.37573C4.45858 3.61005 4.45858 3.98995 4.22426 4.22426L2.04853 6.4H11.9515L9.77574 4.22426C9.54142 3.98995 9.54142 3.61005 9.77574 3.37573C10.0101 3.14142 10.3899 3.14142 10.6243 3.37573L13.8243 6.57573C13.8818 6.63326 13.9252 6.69956 13.9545 6.77033C13.9801 6.83207 13.9957 6.89901 13.9992 6.96912C13.9997 6.97935 14 6.98964 14 7C14 7.15355 13.9414 7.3071 13.8243 7.42426L10.6243 10.6243C10.3899 10.8586 10.0101 10.8586 9.77574 10.6243C9.54142 10.3899 9.54142 10.01 9.77574 9.77573L11.9515 7.6H2.04853L4.22426 9.77573C4.45858 10.01 4.45858 10.3899 4.22426 10.6243C3.98995 10.8586 3.61005 10.8586 3.37574 10.6243L0.175736 7.42426C0.11821 7.36673 0.0748071 7.30043 0.0455273 7.22967C0.0161913 7.15892 0 7.08135 0 7C0 6.91864 0.0161913 6.84107 0.0455273 6.77033C0.0748071 6.69956 0.11821 6.63326 0.175736 6.57573L3.37574 3.37573C3.61005 3.14142 3.98995 3.14142 4.22426 3.37573Z" fill="black"/>
</g>
</svg>

<svg xmlns="http://www.w3.org/2000/svg" fill="none" viewBox="0 0 14 14"><path fill="#000" d="M4.224 3.376a.6.6 0 0 1 0 .848L2.05 6.4h9.903L9.776 4.224a.6.6 0 1 1 .848-.848l3.2 3.2a.6.6 0 0 1 0 .848l-3.2 3.2a.6.6 0 0 1-.848-.848L11.95 7.6H2.05l2.175 2.176a.6.6 0 0 1-.848.848l-3.2-3.2a.6.6 0 0 1 0-.848l3.2-3.2a.6.6 0 0 1 .848 0"/></svg>
